svg/logo/qq_fill.svg

<?xml version="1.0" encoding="UTF-8"?>
<svg width="24px" height="24px" viewBox="0 0 24 24" version="1.1" xmlns="http://www.w3.org/2000/svg" xmlns:xlink="http://www.w3.org/1999/xlink">
    <title>qq_fill</title>
    <g id="页面-1" stroke="none" stroke-width="1" fill="none" fill-rule="evenodd">
        <g id="Logo" transform="translate(-336.000000, -144.000000)" fill-rule="nonzero">
            <g id="qq_fill" transform="translate(336.000000, 144.000000)">
                 <path d="M24,0 L24,24 L0,24 L0,0 L24,0 Z M12.5934901,23.257841 L12.5819402,23.2595131 L12.5108777,23.2950439 L12.4918791,23.2987469 L12.4918791,23.2987469 L12.4767152,23.2950439 L12.4056548,23.2595131 C12.3958229,23.2563662 12.3870493,23.2590235 12.3821421,23.2649074 L12.3780323,23.275831 L12.360941,23.7031097 L12.3658947,23.7234994 L12.3769048,23.7357139 L12.4804777,23.8096931 L12.4953491,23.8136134 L12.4953491,23.8136134 L12.5071152,23.8096931 L12.6106902,23.7357139 L12.6232938,23.7196733 L12.6232938,23.7196733 L12.6266527,23.7031097 L12.609561,23.275831 C12.6075724,23.2657013 12.6010112,23.2592993 12.5934901,23.257841 L12.5934901,23.257841 Z M12.8583906,23.1452862 L12.8445485,23.1473072 L12.6598443,23.2396597 L12.6498822,23.2499052 L12.6498822,23.2499052 L12.6471943,23.2611114 L12.6650943,23.6906389 L12.6699349,23.7034178 L12.6699349,23.7034178 L12.678386,23.7104931 L12.8793402,23.8032389 C12.8914285,23.8068999 12.9022333,23.8029875 12.9078286,23.7952264 L12.9118235,23.7811639 L12.8776777,23.1665331 C12.8752882,23.1545897 12.8674102,23.1470016 12.8583906,23.1452862 L12.8583906,23.1452862 Z M12.1430473,23.1473072 C12.1332178,23.1423925 12.1221763,23.1452606 12.1156365,23.1525954 L12.1099173,23.1665331 L12.0757714,23.7811639 C12.0751323,23.7926639 12.0828099,23.8018602 12.0926481,23.8045676 L12.108256,23.8032389 L12.3092106,23.7104931 L12.3186497,23.7024347 L12.3186497,23.7024347 L12.3225043,23.6906389 L12.340401,23.2611114 L12.337245,23.2485176 L12.337245,23.2485176 L12.3277531,23.2396597 L12.1430473,23.1473072 Z" id="MingCute" fill-rule="nonzero"></path>
                <path d="M12,2 C8.66407,2 5.90922,4.60604 5.72418,7.93683 L5.57807,10.5668 C5.3691,11.0118 5.16261,11.4844 4.96342,11.9774 C3.72209,15.0498 3.23468,17.7502 3.87476,18.0088 C4.20997,18.1442 4.78792,17.5831 5.44071,16.5767 C5.70637,17.9753 6.41083,19.2245 7.40856,20.1705 C6.38223,20.5209 5.49988,20.9978 5.49988,21.4999 C5.49988,22.0088 7.97951,22.0032 9.73792,21.9992 L9.73903,21.9992 C10.2876,21.998 10.7498,21.9923 11.1197,21.9426 C11.4076,21.9805 11.7014,22.0001428 12,22.0001428 C12.2983,22.0001428 12.5918,21.9805 12.8794,21.9427 C13.2494,21.9925 13.7119,21.9982 14.2608,21.9994 L14.2619,21.9994 C16.0203,22.0034 18.4999,22.009 18.4999,21.5001 C18.4999,20.998 17.6175,20.5211 16.5912,20.1707 C17.5872,19.2264 18.291,17.9799 18.5578,16.5843 C19.2086,17.586 19.7845,18.1439 20.1188,18.0088 C20.7589,17.7502 20.2715,15.0498 19.0302,11.9774 C18.8333,11.4901 18.6293,11.0227 18.4228,10.5822 L18.2758,7.93683 C18.0908,4.60605 15.3359,2 12,2 Z" id="路径" fill="#09244B"></path>
            </g>
        </g>
    </g>
</svg>

<svg xmlns="http://www.w3.org/2000/svg" width="24" height="24"><g fill="none" fill-rule="nonzero"><path d="M24 0v24H0V0h24ZM12.593 23.258l-.011.002-.071.035-.02.004-.014-.004-.071-.035c-.01-.004-.019-.001-.024.005l-.004.01-.017.428.005.02.01.013.104.074.015.004.012-.004.104-.074.012-.016.004-.017-.017-.427c-.002-.01-.009-.017-.017-.018Zm.265-.113-.013.002-.185.093-.01.01-.003.011.018.43.005.012.008.007.201.093c.012.004.023 0 .029-.008l.004-.014-.034-.614c-.003-.012-.01-.02-.02-.022Zm-.715.002a.023.023 0 0 0-.027.006l-.006.014-.034.614c0 .012.007.02.017.024l.015-.002.201-.093.01-.008.004-.011.017-.43-.003-.012-.01-.01-.184-.092Z"/><path fill="#09244B" d="M12 2a6.285 6.285 0 0 0-6.276 5.937l-.146 2.63a28.04 28.04 0 0 0-.615 1.41c-1.24 3.073-1.728 5.773-1.088 6.032.335.135.913-.426 1.566-1.432a6.672 6.672 0 0 0 1.968 3.593c-1.027.35-1.91.828-1.91 1.33 0 .509 2.48.503 4.239.5h.001c.549-.002 1.01-.008 1.38-.057a6.742 6.742 0 0 0 1.76 0c.37.05.833.055 1.382.056 1.76.004 4.239.01 4.239-.499 0-.502-.883-.979-1.909-1.33a6.672 6.672 0 0 0 1.967-3.586c.65 1.002 1.227 1.56 1.56 1.425.64-.259.154-2.96-1.088-6.032a28.08 28.08 0 0 0-.607-1.395l-.147-2.645A6.285 6.285 0 0 0 12 2Z"/></g></svg>
